X:116
T:Polska fr{\aa}n Loftahammar
R:sl-polska
H:jfr nr 114
A:Sm{\aa}land
B:SvL Sml 34, efter Lars August Bengtsson, Loftahammar
Z:id:hn-sp-116
M:3/4
L:1/16
K:G
G2g2 g2f2 e2fg | agfe d4 B2d2 | d2c2 c2A2 A2c2 | dcBA B2G2 G2B2 |
dcBc Acec Acec | dcBA GBdB GBdB | cBAB c2c2 d2d2 | e2g2 fgaf g4 :|
|: gfga b6 g2 | agfg a6 f2 | gfga b6 g2 | agfg a6 f2 | agfg e6 g2 |
agfe f2d2 d2B2 | dcBc Acec Acec | dcBA GBdB GBdB | dcBc Acec Acec |
dcBA GBdB GBdB | cBAB c2c2 d2d2 | e2g2 fgaf g4 :|

